src/landing/containers/MainScreen/components/Advantages/assets/reliability.svg

<svg width="120" height="120" viewBox="0 0 120 120" fill="none" xmlns="http://www.w3.org/2000/svg">
    <path d="M27 75L57.9268 56.5695C59.201 55.8102 60.799 55.8102 62.0732 56.5695L93 75L62.0732 93.4305C60.799 94.1898 59.2011 94.1898 57.9268 93.4305L27 75Z" fill="white"/>
    <path fill-rule="evenodd" clip-rule="evenodd" d="M61.0366 58.2247C60.3995 57.8444 59.6005 57.8444 58.9634 58.2247L30.8588 75L58.9634 91.7753C59.6005 92.1556 60.3995 92.1556 61.0366 91.7753L89.1412 75L61.0366 58.2247ZM56.8902 54.8557C58.8016 53.7148 61.1984 53.7148 63.1098 54.8557L94.0366 73.3155C94.6347 73.6725 95 74.3112 95 75C95 75.6888 94.6347 76.3275 94.0366 76.6845L63.1098 95.1443C61.1984 96.2852 58.8016 96.2852 56.8902 95.1443L25.9634 76.6845C25.3653 76.3275 25 75.6888 25 75C25 74.3112 25.3653 73.6725 25.9634 73.3155L56.8902 54.8557Z" fill="url(#paint0_linear)"/>
    <path d="M56.8902 38.8557C58.8016 37.7148 61.1984 37.7148 63.1098 38.8557L94.0366 57.3155C94.6347 57.6725 95 58.3112 95 59C95 59.6888 94.6347 60.3275 94.0366 60.6845L63.1098 79.1443C61.1984 80.2852 58.8016 80.2852 56.8902 79.1443L25.9634 60.6845C25.3653 60.3275 25 59.6888 25 59C25 58.3112 25.3653 57.6725 25.9634 57.3155L56.8902 38.8557Z" fill="url(#paint1_linear)"/>
    <path fill-rule="evenodd" clip-rule="evenodd" d="M61.0366 28.2247C60.3995 27.8444 59.6005 27.8444 58.9634 28.2247L30.8588 45L58.9634 61.7753C59.6005 62.1556 60.3995 62.1556 61.0366 61.7753L89.1412 45L61.0366 28.2247ZM56.8902 24.8557C58.8016 23.7148 61.1984 23.7148 63.1098 24.8557L94.0366 43.3155C94.6347 43.6725 95 44.3112 95 45C95 45.6888 94.6347 46.3275 94.0366 46.6845L63.1098 65.1443C61.1984 66.2852 58.8016 66.2852 56.8902 65.1443L25.9634 46.6845C25.3653 46.3275 25 45.6888 25 45C25 44.3112 25.3653 43.6725 25.9634 43.3155L56.8902 24.8557Z" fill="url(#paint2_linear)"/>
    <defs>
        <linearGradient id="paint0_linear" x1="95" y1="54" x2="95" y2="96" gradientUnits="userSpaceOnUse">
            <stop stop-color="#FFA526"/>
            <stop offset="1" stop-color="#FF860D"/>
        </linearGradient>
        <linearGradient id="paint1_linear" x1="95" y1="38" x2="95" y2="80" gradientUnits="userSpaceOnUse">
            <stop stop-color="#4070FF"/>
            <stop offset="1" stop-color="#365FD9"/>
        </linearGradient>
        <linearGradient id="paint2_linear" x1="95" y1="24" x2="95" y2="66" gradientUnits="userSpaceOnUse">
            <stop stop-color="#FFA526"/>
            <stop offset="1" stop-color="#FF860D"/>
        </linearGradient>
    </defs>
</svg>

<svg width="120" height="120" fill="none" xmlns="http://www.w3.org/2000/svg"><path d="M27 75l30.927-18.43a4.059 4.059 0 014.146 0L93 75 62.073 93.43a4.059 4.059 0 01-4.146 0L27 75z" fill="#fff"/><path fill-rule="evenodd" clip-rule="evenodd" d="M61.037 58.225a2.026 2.026 0 00-2.074 0L30.86 75l28.104 16.775a2.03 2.03 0 002.074 0L89.14 75 61.037 58.225zm-4.147-3.37a6.079 6.079 0 016.22 0l30.927 18.46c.598.358.963.996.963 1.685 0 .689-.365 1.328-.963 1.684L63.11 95.144a6.079 6.079 0 01-6.22 0l-30.927-18.46A1.964 1.964 0 0125 75c0-.689.365-1.328.963-1.684l30.927-18.46z" fill="url(#paint0_linear)"/><path d="M56.89 38.856a6.079 6.079 0 016.22 0l30.927 18.46c.598.356.963.995.963 1.684s-.365 1.328-.963 1.684L63.11 79.144a6.079 6.079 0 01-6.22 0l-30.927-18.46A1.964 1.964 0 0125 59c0-.689.365-1.328.963-1.684l30.927-18.46z" fill="url(#paint1_linear)"/><path fill-rule="evenodd" clip-rule="evenodd" d="M61.037 28.225a2.026 2.026 0 00-2.074 0L30.86 45l28.104 16.775a2.03 2.03 0 002.074 0L89.14 45 61.037 28.225zm-4.147-3.37a6.079 6.079 0 016.22 0l30.927 18.46c.598.358.963.996.963 1.685 0 .689-.365 1.328-.963 1.684L63.11 65.144a6.079 6.079 0 01-6.22 0l-30.927-18.46A1.964 1.964 0 0125 45c0-.689.365-1.328.963-1.684l30.927-18.46z" fill="url(#paint2_linear)"/><defs><linearGradient id="paint0_linear" x1="95" y1="54" x2="95" y2="96" gradientUnits="userSpaceOnUse"><stop stop-color="#FFA526"/><stop offset="1" stop-color="#FF860D"/></linearGradient><linearGradient id="paint1_linear" x1="95" y1="38" x2="95" y2="80" gradientUnits="userSpaceOnUse"><stop stop-color="#4070FF"/><stop offset="1" stop-color="#365FD9"/></linearGradient><linearGradient id="paint2_linear" x1="95" y1="24" x2="95" y2="66" gradientUnits="userSpaceOnUse"><stop stop-color="#FFA526"/><stop offset="1" stop-color="#FF860D"/></linearGradient></defs></svg>
